images/social/telegram.svg

<svg xmlns="http://www.w3.org/2000/svg" width="24" height="24" fill="none">
	<g clip-path="url(#a)" clip-rule="evenodd">
		<path stroke="#9399A7"
			d="M12 22.5c7.991 0 10.5-2.501 10.5-10.466C22.5 4.047 19.97 1.5 12 1.5 4.03 1.5 1.5 4.048 1.5 12.034 1.5 20 4.009 22.5 12 22.5Z" />
		<path fill="#9399A7" fill-rule="evenodd"
			d="m7.39364 13.522-2.262-.786c-.1001-.0348-.18704-.0996-.24902-.1856-.06199-.0859-.096-.1889-.09742-.2948-.00142-.106.02982-.2098.08948-.2974.05966-.0876.14483-.1547.24396-.1922l11.32696-4.29c.1244-.04704.2592-.05955.3901-.03621.1309.02334.2531.08167.3536.1688.1004.08713.1754.19982.217.32612.0417.1263.0483.26151.0193.39129l-1.963 8.917c-.0299.1354-.0931.2612-.1838.3661-.0908.1049-.2061.1855-.3358.2347-.1296.0492-.2695.0654-.4069.0471-.1375-.0183-.2682-.0705-.3805-.1519l-3.893-2.836c-.058-.0422-.106-.0966-.1408-.1593-.0348-.0627-.0554-.1323-.0604-.2039-.0051-.0715.0056-.1433.0312-.2103.0256-.067.0655-.1276.117-.1775l3.988-3.864c.18-.175-.045-.461-.257-.327L8.53864 13.39c-.16846.1071-.35897.1747-.55726.1978-.19829.023-.39922-.0001-.58774-.0658Z" />
	</g>
	<defs>
		<clipPath id="a">
			<path fill="#fff" d="M0 0h24v24H0z" />
		</clipPath>
	</defs>
</svg>

<svg width="24" height="24" viewBox="0 0 24 24" fill="none" xmlns="http://www.w3.org/2000/svg">
<g clip-path="url(#clip0_179_9400)">
<path fill-rule="evenodd" clip-rule="evenodd" d="M12 22.5C19.991 22.5 22.5 19.999 22.5 12.034C22.5 4.047 19.97 1.5 12 1.5C4.03 1.5 1.5 4.048 1.5 12.034C1.5 20 4.009 22.5 12 22.5Z" stroke="#9399A7"/>
<path fill-rule="evenodd" clip-rule="evenodd" d="M7.39364 13.522L5.13164 12.736C5.03154 12.7012 4.9446 12.6364 4.88262 12.5504C4.82063 12.4645 4.78662 12.3615 4.7852 12.2556C4.78378 12.1496 4.81502 12.0458 4.87468 11.9582C4.93434 11.8706 5.01951 11.8035 5.11864 11.766L16.4456 7.476C16.57 7.42896 16.7048 7.41645 16.8357 7.43979C16.9666 7.46313 17.0888 7.52146 17.1893 7.60859C17.2897 7.69572 17.3647 7.80841 17.4063 7.93471C17.448 8.06101 17.4546 8.19622 17.4256 8.326L15.4626 17.243C15.4327 17.3784 15.3695 17.5042 15.2788 17.6091C15.188 17.714 15.0727 17.7946 14.943 17.8438C14.8134 17.893 14.6735 17.9092 14.5361 17.8909C14.3986 17.8726 14.2679 17.8204 14.1556 17.739L10.2626 14.903C10.2046 14.8608 10.1566 14.8064 10.1218 14.7437C10.087 14.681 10.0664 14.6114 10.0614 14.5398C10.0563 14.4683 10.067 14.3965 10.0926 14.3295C10.1182 14.2625 10.1581 14.2019 10.2096 14.152L14.1976 10.288C14.3776 10.113 14.1526 9.827 13.9406 9.961L8.53864 13.39C8.37018 13.4971 8.17967 13.5647 7.98138 13.5878C7.78309 13.6108 7.58216 13.5877 7.39364 13.522Z" fill="#9399A7"/>
</g>
<defs>
<clipPath id="clip0_179_9400">
<rect width="24" height="24" fill="white"/>
</clipPath>
</defs>
</svg>
